X:1
T:Title
%%score { ( 1 3 ) | ( 2 4 ) }
L:1/8
M:4/4
K:Eb
V:1 treble nm="Grand Piano"
V:3 treble 
V:2 bass 
V:4 bass 
V:1
 z4 z2 z[Q:1/4=100] B | B2 G2 [Ac]3 [GB] | [EGB]2 [E_G=A]2 [DF_A]3 [DFA] | %3
 [DFA]2 [B,DF]2 [DB]3 [B,DF] |[M:7/8] [B,EG]-[B,EG]-[B,EG]- [B,EG]3 z |[M:1/8] [EGB] | %6
[M:4/4] [EGB]2 [B,EG]2 [EAc]3 [EGB] | [EGB]2 [E_G=A]2 [DF_A]3 =G | F2 e2 d3 c |[M:3/4] [DFB]6 | %10
[M:1/4] [AB]2 |[M:4/4] [GB]3 G cc B>G | B6 z2 | c3 A ee d>c | B6 z2 | [Ad]3 [Ad] [Ac]2 [AB]2 | %16
 [Ge]3 [EG] [GB]3 [GB] | z4 e4 |[M:17/16] G/-G/-G-<G[DF]E/-E/-E/-E/-E/-E-<E |] %19
V:2
 z4 z2 z [E,G,E] | [E,G,E]2 [E,B,E]2 [E,E]3 [E,E] | B,,2 B,,2 B,,3 B,, | B,,2 B,,2 [B,,F,]3 B,, | %4
[M:7/8] E,-E,-E,- E,3 z |[M:1/8] E, |[M:4/4] E,2 E,2 E,3 E, | B,,2 B,,2 B,,3 [E,B,E] | %8
 [F,B,D]2 [F,=A,F]2 [F,B,F]3 [F,EF] |[M:3/4] [B,,B,]6 |[M:1/4] [B,D]2 | %11
[M:4/4] [E,E]3 [E,B,E] [E,A,E][E,A,E] [E,G,E]>[E,B,E] | E,E,B,,B,, E,2 E,2 | %13
 [A,EA]3 [A,CE] [A,CA][A,CA] [A,B,A]>[A,EA] | E,E,B,,B,, E,2 E,2 | %15
 [F,B,]3 [D,B,] [B,,B,]2 [D,B,]2 | [E,B,]3 [E,B,] [E,E]3 [E,E] | %17
 [A,E]2 [F,B,]2 B,->[F,B,][K:treble] [G,E][A,CF] | %18
[M:17/16] [B,E]/-[B,E]/-[B,E]-<[B,E][K:bass][B,,A,][E,G,]/-[E,G,]/-[E,G,]/-[E,G,]/-[E,G,]/-[E,G,]-<[E,G,] |] %19
V:3
 x8 | x8 | x8 | x8 |[M:7/8] x7 |[M:1/8] x |[M:4/4] x8 | x8 | x8 |[M:3/4] x6 |[M:1/4] x2 | %11
[M:4/4] x8 | [EG][EG][DF][DA] [EG]2 [EGB]2 | x8 | [EG][EG][DF][DA] [EG]2 [EGB]2 | x8 | x8 | %17
 [Ac]2 [Ad]2 G>A BA |[M:17/16] x17/2 |] %19
V:4
 x8 | x8 | x8 | x8 |[M:7/8] x7 |[M:1/8] x |[M:4/4] x8 | x8 | x8 |[M:3/4] x6 |[M:1/4] x2 | %11
[M:4/4] x8 | x8 | x8 | x8 | x8 | x8 | z4 E,2[K:treble] z2 |[M:17/16] x3[K:bass] x11/2 |] %19

